X:1
T:Truth in Song
T:Truth in Song
T:Andrew L. Byers, 1907
T:Barney E. Warren, 1907
T:PUBLIC DOMAIN
T:PUBLIC DOMAIN
C:Andrew L. Byers, 1907
Z:Barney E. Warren, 1907
Z:PUBLIC DOMAIN
%%score ( 1 2 ) ( 3 4 )
L:1/8
Q:1/4=130
M:3/4
K:G
V:1 treble nm="Treble"
V:2 treble 
V:3 bass nm="Bass"
V:4 bass 
V:1
 [DG]4 [EG]2 | [DG]4 [DG]2 | [DB]4 [DG]2 | [CE]2 [B,D]4 | [CA]4 [CA]2 | (([CA]2 [B,G]2)) [DA]2 | %6
w: 1.~Truth in|song, di-|vine- ly|spo- ken,|Clothed in|strains * of|
w: 2.~Truth in|song, we|own the|Au- thor,|Mak- er|of * e-|
w: 3.~We Thy|coun- sel,|Lord, have|ta- ken,|Creeds are|crum- _ bling|
w: 4.~Law of|love, we|meek- ly|pray thee,|Light and|life * to|
 [DB]4 [Gd]2 | [Fd]6 | [DG]4 [DG]2 | [GB]4 G2 | [Gd]4 [Ge]2 | [Gd]2 [DB]4 | [EG]4 [CE]2 | %13
w: mu- sic|grand;|Like a|chain with|links un-|bro- ken;|Like a|
w: ter- nal|things;|Praise to|Him we|glad- ly|of- fer|For the|
w: ’neath our|feet;|Here we|stand, by|sin un-|sha- ken,|Here we|
w: us im-|part;|Un- con-|demned, we|will o-|bey thee;|Dwell thou|
 D4 (([B,G] [CA])) | [DG]4 [DF]2 | [DG]6 ||"^Refrain" [Dd]4 [Dd]2 | [Dd]4 D2 | [DG]4 [DA]2 | %19
w: rock on *|which we|stand.|Rock of|Truth, on|thee a-|
w: hope and *|grace it|brings.||||
w: reign in *|grace com-|plete.||||
w: ev- er *|in our|heart.||||
 [DB]2 [DG]4 | [FA]4 [Fd]2 | [GB]4 [DG]2 | [DF]4 [^CE]2 | D6 | [DB]4 [DB]2 | (B2 A2) [DG]2 | %26
w: bid- ing,|Thus pro-|tect- ed|we shall|be|In Je-|ho- _ vah’s|
w: |||||||
w: |||||||
w: |||||||
 [EG]4 [Ec]2 | [Ge]2 [Gd]4 | [DG]4 [EG]2 | G4 [EA]2 | [DG]6 | [DF]6 | [DG]6 |] %33
w: pres- ence|hid- ing,|Un- to|all e-|ter-|ni-|ty.|
w: |||||||
w: |||||||
w: |||||||
V:2
 x6 | x6 | x6 | x6 | x6 | x6 | x6 | x6 | x6 | z4 G2 | x6 | x6 | x6 | D4 z2 | x6 | x6 || x6 | %17
 z4 D2 | x6 | x6 | x6 | x6 | x6 | D6 | x6 | D4 z2 | x6 | x6 | x6 | G4 z2 | x6 | x6 | x6 |] %33
V:3
 [G,B,]4 [G,C]2 | [G,B,]4 [G,B,]2 | G,4 [G,B,]2 | G,2 G,4 | [D,F,]4 [D,F,]2 | (F,2 G,2) [D,F,]2 | %6
 G,4 [G,B,]2 | [D,A,]6 | [G,B,]4 [G,B,]2 | [G,D]4 [G,B,]2 | [G,B,]4 [G,C]2 | [G,B,]2 G,4 | %12
 [C,C]4 [C,G,]2 | [B,,G,]4 [E,G,]2 | [D,B,]4 [D,A,]2 | [G,,B,]6 || [D,F,]4 [E,G,]2 | [F,A,]4 F,2 | %18
 [B,,G,]4 [D,F,]2 | G,2 [G,B,]4 | [D,D]4 [D,D]2 | [G,D]4 [G,B,]2 | A,4 [A,,G,]2 | [D,F,]6 | %24
 G,4 G,2 | (G,2 C2) [G,B,]2 | [C,C]4 [C,C]2 | [G,C]2 [G,B,]4 | [G,B,]4 [E,B,]2 | [B,,D]4 [C,C]2 | %30
 [D,B,]6 | (A,4 C2) | [G,,B,]6 |] %33
V:4
 x6 | x6 | G,4 z2 | G,2 G,4 | x6 | D,4 z2 | G,4 z2 | x6 | x6 | x6 | x6 | z2 G,4 | x6 | x6 | x6 | %15
 x6 || x6 | z4 (D, C,) | x6 | G,2 z4 | x6 | x6 | A,4 z2 | x6 | G,4 G,2 | G,4 z2 | x6 | x6 | x6 | %29
 x6 | x6 | D,6 | x6 |] %33

